icons/Svelte.svg

<svg xmlns="http://www.w3.org/2000/svg" width="256" height="256" fill="none" viewBox="0 0 256 256"><rect width="256" height="256" fill="#FF3E00" rx="60"/><g clip-path="url(#clip0_7_282)"><path fill="#fff" d="M193.034 61.7966C176.407 37.8474 143.305 30.8305 119.509 45.9322L77.5594 72.7796C66.1187 79.9491 58.1865 91.6949 55.8983 104.966C53.9153 116.102 55.5933 127.542 60.9322 137.458C57.2712 142.949 54.8305 149.051 53.7627 155.458C51.3221 169.034 54.5255 183.068 62.4577 194.203C79.2373 218.153 112.186 225.169 135.983 210.068L177.932 183.373C189.373 176.203 197.305 164.458 199.593 151.186C201.576 140.051 199.898 128.61 194.559 118.695C198.22 113.203 200.661 107.102 201.729 100.695C204.322 86.9661 201.119 72.9322 193.034 61.7966Z"/><path fill="#FF3E00" d="M115.39 196.491C101.814 200 87.6271 194.661 79.6949 183.22C74.8135 176.508 72.983 168.119 74.3559 159.881C74.661 158.508 74.9661 157.288 75.2711 155.915L76.0338 153.475L78.1694 155C83.2033 158.661 88.6949 161.407 94.644 163.237L96.1694 163.695L96.0169 165.22C95.8644 167.356 96.4745 169.644 97.6949 171.475C100.136 174.983 104.407 176.661 108.525 175.593C109.441 175.288 110.356 174.983 111.119 174.525L152.915 147.83C155.051 146.458 156.424 144.475 156.881 142.034C157.339 139.593 156.729 137 155.356 135.017C152.915 131.508 148.644 129.983 144.525 131.051C143.61 131.356 142.695 131.661 141.932 132.119L125.915 142.339C123.322 144.017 120.424 145.237 117.373 146C103.797 149.508 89.6101 144.169 81.6779 132.729C76.9491 126.017 74.9661 117.627 76.4915 109.39C77.8644 101.458 82.7457 94.2881 89.6101 90.0169L131.559 63.322C134.152 61.644 137.051 60.4237 140.102 59.5084C153.678 56 167.864 61.3389 175.797 72.7796C180.678 79.4915 182.508 87.8813 181.136 96.1186C180.83 97.4915 180.525 98.7118 180.068 100.085L179.305 102.525L177.169 101C172.136 97.3389 166.644 94.5932 160.695 92.7627L159.169 92.305L159.322 90.7796C159.475 88.644 158.864 86.3559 157.644 84.5254C155.203 81.0169 150.932 79.4915 146.814 80.5593C145.898 80.8644 144.983 81.1694 144.22 81.6271L102.424 108.322C100.288 109.695 98.9152 111.678 98.4576 114.119C97.9999 116.559 98.6101 119.153 99.983 121.136C102.424 124.644 106.695 126.169 110.814 125.102C111.729 124.797 112.644 124.491 113.407 124.034L129.424 113.814C132.017 112.136 134.915 110.915 137.966 110C151.542 106.491 165.729 111.83 173.661 123.271C178.542 129.983 180.373 138.373 179 146.61C177.627 154.542 172.746 161.712 165.881 165.983L123.932 192.678C121.339 194.356 118.441 195.576 115.39 196.491Z"/></g><defs><clipPath id="clip0_7_282"><rect width="149.644" height="180" fill="#fff" transform="translate(53 38)"/></clipPath></defs></svg>

<svg xmlns="http://www.w3.org/2000/svg" width="256" height="256" fill="none" viewBox="0 0 256 256"><rect width="256" height="256" fill="#FF3E00" rx="60"/><g clip-path="url(#a)"><path fill="#fff" d="M193.03 61.8c-16.62-23.95-49.72-30.97-73.52-15.87L77.56 72.78a47.7 47.7 0 0 0-21.66 32.19 50 50 0 0 0 5.03 32.49 46 46 0 0 0-7.17 18 51.3 51.3 0 0 0 8.7 38.74c16.78 23.95 49.73 30.97 73.52 15.87l41.95-26.7a47.7 47.7 0 0 0 21.66-32.18 50 50 0 0 0-5.03-32.5 46 46 0 0 0 7.17-18 50.3 50.3 0 0 0-8.7-38.9"/><path fill="#FF3E00" d="M115.39 196.5a33.25 33.25 0 0 1-35.7-13.28 31 31 0 0 1-5.33-23.34c.3-1.37.6-2.6.91-3.97l.76-2.44 2.14 1.53a56 56 0 0 0 16.47 8.24l1.53.45-.15 1.53c-.16 2.14.45 4.42 1.67 6.25a10.1 10.1 0 0 0 10.84 4.12c.91-.3 1.83-.6 2.59-1.06l41.8-26.7a8.6 8.6 0 0 0 3.96-5.8 9.5 9.5 0 0 0-1.52-7.01 10 10 0 0 0-10.84-3.97c-.91.3-1.83.61-2.59 1.07l-16.01 10.22c-2.6 1.68-5.5 2.9-8.55 3.66a33.25 33.25 0 0 1-35.7-13.27 30.8 30.8 0 0 1-5.18-23.34 29 29 0 0 1 13.12-19.37l41.95-26.7a33 33 0 0 1 8.54-3.81 33.25 33.25 0 0 1 35.7 13.27 31 31 0 0 1 5.34 23.34c-.31 1.37-.61 2.6-1.07 3.96l-.76 2.45-2.14-1.53a56 56 0 0 0-16.47-8.24l-1.53-.45.15-1.53c.16-2.14-.46-4.42-1.68-6.25a10 10 0 0 0-10.83-3.97c-.91.3-1.83.6-2.59 1.07l-41.8 26.7a8.6 8.6 0 0 0-3.96 5.79 9.5 9.5 0 0 0 1.52 7.02 10 10 0 0 0 10.83 3.96c.92-.3 1.83-.6 2.6-1.07l16.01-10.22c2.6-1.67 5.5-2.9 8.55-3.81a33.25 33.25 0 0 1 35.7 13.27 31 31 0 0 1 5.33 23.34 29 29 0 0 1-13.12 19.37l-41.95 26.7a33 33 0 0 1-8.54 3.81"/></g><defs><clipPath id="a"><path fill="#fff" d="M53 38h149.64v180H53z"/></clipPath></defs></svg>
